!!!COM: Anonymous
!!!COS: Gaspar van Weerbeke
!!!OPR: In honorem sancti spiritus
!!!OTL: Sancti spiritus adsit nobis
!!!ONM: 5.2
!!!AGN: Motet
!!!SCT: Gas0303e.2
!!!SCA: Gas0303e.2
!!!voices: 4
**kern	**text	**kern	**text	**kern	**text	**kern	**text
*part4	*part4	*part3	*part3	*part2	*part2	*part1	*part1
*staff4	*staff4	*staff3	*staff3	*staff2	*staff2	*staff1	*staff1
*I"Bassus	*	*I"Tenor	*	*I"Altus	*	*I"Superius	*
*I'B	*	*I'T	*	*I'A	*	*I'S	*
*clefF4	*	*clefGv2	*	*clefGv2	*	*clefG2	*
*k[]	*	*k[]	*	*k[]	*	*k[]	*
*M2/2	*	*M2/2	*	*M2/2	*	*M2/2	*
*met(C|)	*	*met(C|)	*	*met(C|)	*	*met(C|)	*
=1	=1	=1	=1	=1	=1	=1	=1
1C	Sanc-	1c	Sanc-	2g	Sanc-	2cc	Sanc-
.	.	.	.	4e	-ti	4a	-ti
.	.	.	.	[4g	spi-	[4cc	spi-
=2	=2	=2	=2	=2	=2	=2	=2
1F	-ti	1A	-ti	8gL]	.	8ccL]	.
.	.	.	.	8f	.	8b	.
.	.	.	.	8e	.	8a	.
.	.	.	.	8dJ	.	8gJ	.
.	.	.	.	4c	.	2a	-ri-
.	.	.	.	4d	.	.	.
=3	=3	=3	=3	=3	=3	=3	=3
2E	spi-	2B	spi-	2e	-ri-	2g	-tus
2D	-ri-	2B	-ri-	2f	-tus	2r	.
=4	=4	=4	=4	=4	=4	=4	=4
2C	-tus	1c	-tus	2e	ad-	2cc	ad-
2r	.	.	.	2e	-sit	4a	-sit
.	.	.	.	.	.	[4cc	no-
=5	=5	=5	=5	=5	=5	=5	=5
4.F	ad-	1r	.	4r	.	8ccL]	.
.	.	.	.	.	.	8b	.
.	.	.	.	2f	no-	8a	.
8E	.	.	.	.	.	8gJ	.
4F	-sit	.	.	.	.	4a	-bis
4G	no-	.	.	8eL	-bis	4b	gra-
.	.	.	.	8dJ	.	.	.
=6	=6	=6	=6	=6	=6	=6	=6
4A	-bis	2c	ad-	4.e	gra-	2cc	-ti-
2F	gra-	.	.	.	.	.	.
.	.	.	.	8d	-ti-	.	.
.	.	2c	-sit	2f	-a,	2a	-a,
[4A	-ti-	.	.	.	.	.	.
!!LO:LB:g=original
=7	=7	=7	=7	=7	=7	=7	=7
8AL]	.	2A	no-	4r	.	2r	.
8G	.	.	.	.	.	.	.
8F	.	.	.	2a	Quae	.	.
8EJ	.	.	.	.	.	.	.
2F	-a,	2A	-bis	.	.	4r	.
.	.	.	.	8gL	.	[4cc	Quae
.	.	.	.	8fJ	.	.	.
=8	=8	=8	=8	=8	=8	=8	=8
4.E	Quae	2B	gra-	4g	.	4cc]	.
.	.	.	.	2f	cor-	8bL	.
8F	.	.	.	.	.	8aJ	.
2G	cor-	2B	-ti-	.	.	2b	cor-
.	.	.	.	4e	-da	.	.
=9	=9	=9	=9	=9	=9	=9	=9
4F	-da	1c	-a,	2f	nos-	4a	-da
4.A	nos-	.	.	.	.	4.cc	nos-
.	.	.	.	2e	-tra	.	.
8GL	.	.	.	.	.	8bL	.
8F	.	.	.	.	.	8a	.
8EJ	.	.	.	.	.	8gJ	.
=10	=10	=10	=10	=10	=10	=10	=10
2F	.	1r	.	4r	.	4a	.
.	.	.	.	4.A	si-	2f	-tra
2D	-tra	.	.	.	.	.	.
.	.	.	.	8GL	.	.	.
.	.	.	.	8E	.	8eL	.
.	.	.	.	8FJ	.	8dJ	.
=11	=11	=11	=11	=11	=11	=11	=11
4.C	si-	2c	nos-	2G	-bi	4.e	si-
8D	.	.	.	.	.	8f	.
4E	-bi	2c	-tra	2r	.	4g	-bi
[4F	fa-	.	.	.	.	[4a	fa-
=12	=12	=12	=12	=12	=12	=12	=12
4F]	.	2A	si-	4.F	fa-	4a]	.
8EL	.	.	.	.	.	8gL	.
8DJ	.	.	.	8G	.	8fJ	.
[2F	.	2A	-bi	8AL	.	[2a	.
.	.	.	.	8G	.	.	.
.	.	.	.	8F	.	.	.
.	.	.	.	8EJ	.	.	.
=13	=13	=13	=13	=13	=13	=13	=13
4F]	.	2B	fa-	4D	.	4a]	.
4E	.	.	.	4E	.	4g	.
2D	-ci-	2B	-ci-	2F	-ci-	2f	-ci-
=14	=14	=14	=14	=14	=14	=14	=14
1C	-at	2c	-at	1G	-at	2e	-at
.	.	2r	.	.	.	2r	.
!!LO:LB:g=original
=15	=15	=15	=15	=15	=15	=15	=15
2F	ha-	4.A	ha-	2A	ha-	4r	.
.	.	.	.	.	.	2cc	ha-
.	.	8B	.	.	.	.	.
2F	-bi-	4c	.	2A	-bi-	.	.
.	.	4d	.	.	.	8bL	.
.	.	.	.	.	.	8aJ	.
=16	=16	=16	=16	=16	=16	=16	=16
4G	-ta-	4B	.	4G	-ta-	4b	-bi-
2F	.	4c	.	4.c	.	2a	-ta-
.	.	2A	-bi-	.	.	.	.
.	.	.	.	8BL	.	.	.
8EL	.	.	.	8c	.	8gL	.
8FJ	.	.	.	8dJ	.	8fJ	.
=17	=17	=17	=17	=17	=17	=17	=17
2G	-cu-	2B	-ta-	2e	.	8eL	.
.	.	.	.	.	.	8dJ	.
.	.	.	.	.	.	2g	.
2D	-la,	2A	-cu-	4r	.	.	.
.	.	.	.	[4d	-cu-	4f#i	-cu-
=18	=18	=18	=18	=18	=18	=18	=18
2r	.	[1G	-la,	8dL]	.	1g	-la,
.	.	.	.	8c	.	.	.
.	.	.	.	8B	.	.	.
.	.	.	.	8AJ	.	.	.
2E	Spi-	.	.	2B	-la,	.	.
=19	=19	=19	=19	=19	=19	=19	=19
2C	-ri-	2G]	.	2c	Spi-	1r	.
4D	-tus	2A	Spi-	4c	-ri-	.	.
[4F	al-	.	.	4c	-tus	.	.
=20	=20	=20	=20	=20	=20	=20	=20
4F]	.	4A	-ri-	2d	al-	1r	.
8EL	.	4A	-tus	.	.	.	.
8FJ	.	.	.	.	.	.	.
4G	.	2B	al-	2e	-me,	.	.
4E	-me,	.	.	.	.	.	.
=21	=21	=21	=21	=21	=21	=21	=21
4F	il-	2A	-me,	4c	il-	1r	.
4F	-lu-	.	.	4.d	-lu-	.	.
4.G	-stra-	2r	.	.	.	.	.
.	.	.	.	8cL	.	.	.
.	.	.	.	8B	.	.	.
8F	.	.	.	8AJ	.	.	.
!!LO:LB:g=original
=22	=22	=22	=22	=22	=22	=22	=22
4E	.	4r	.	4G	.	1r	.
4F	-tor	4.c	cor-	4.A	-stra-	.	.
2C	cor-	.	.	.	.	.	.
.	.	8BL	.	8G	.	.	.
.	.	8A	.	[4c	.	.	.
.	.	8GJ	.	.	.	.	.
=23	=23	=23	=23	=23	=23	=23	=23
2D	-di-	4.F	-di-	4c]	.	2r	.
.	.	.	.	4B	-tor	.	.
.	.	8E	.	.	.	.	.
2C	-um,	2G	-um,	4.c	cor-	2cc	Hor-
.	.	.	.	8d	-di-	.	.
=24	=24	=24	=24	=24	=24	=24	=24
1r	.	2A	Hor-	4e	-um,	4cc	-ri-
.	.	.	.	2f	Hor-	4cc	-das
.	.	2F	-ri-	.	.	2dd	nos-
.	.	.	.	8eL	.	.	.
.	.	.	.	8fJ	.	.	.
=25	=25	=25	=25	=25	=25	=25	=25
2G	Hor-	2E	-das	4g	-ri-	2ee	-trae
.	.	.	.	4e	.	.	.
4.A	-ri-	2r	.	2f	-das	4cc	men-
.	.	.	.	.	.	[4dd	.
8G	.	.	.	.	.	.	.
=26	=26	=26	=26	=26	=26	=26	=26
2F	-das	4A	nos-	2d	nos-	8ddL]	.
.	.	.	.	.	.	8cc	.
.	.	4A	-trae	.	.	8b	.
.	.	.	.	.	.	8aJ	.
2E	nos-	2B	men-	2e	-trae	2g	-tis
=27	=27	=27	=27	=27	=27	=27	=27
2F	-trae	2A	-tis	4.c	men-	4r	.
.	.	.	.	.	.	2cc	pur-
.	.	.	.	8d	.	.	.
4E	men-	2r	.	4e	.	.	.
[4A	-tis	.	.	4f	-tis	8bL	.
.	.	.	.	.	.	8aJ	.
=28	=28	=28	=28	=28	=28	=28	=28
8AL]	.	4r	.	2d	pur-	4b	-ga
8GJ	pur-	.	.	.	.	.	.
4F	-ga	4A	pur-	.	.	4.dd	te-
4.E	te-	4G	-ga	2e	-ga	.	.
.	.	.	.	.	.	8cc	.
.	.	4A	te-	.	.	[4cc	.
8F	.	.	.	.	.	.	.
!!LO:PB:g=original
=29	=29	=29	=29	=29	=29	=29	=29
2G	-ne-	2B	-ne-	2d	te-	4cc]	.
.	.	.	.	.	.	4b	-ne-
2C	-bras.	2G	-bras.	4e	.	2cc	-bras.
.	.	.	.	4c	.	.	.
=30	=30	=30	=30	=30	=30	=30	=30
2G	Ve-	1r	.	2d	-ne-	2r	.
2A	-ni	.	.	2c	-bras.	2cc	Ve-
=31	=31	=31	=31	=31	=31	=31	=31
2G	cre-	2G	Ve-	2r	.	2b	-ni
2F	-a-	2A	-ni	2f	Ve-	2cc	cre-
=32	=32	=32	=32	=32	=32	=32	=32
2G	-tor,	2G	cre-	4d	-ni	2g	-a-
.	.	.	.	4e	.	.	.
2r	.	2F	-a-	2f	cre-	2a	-tor,
=33	=33	=33	=33	=33	=33	=33	=33
4.C	spi-	2G	-tor,	2e	-a-	4g	spi-
.	.	.	.	.	.	2cc	.
8D	.	.	.	.	.	.	.
4E	.	2r	.	4.c	.	.	.
[4F	.	.	.	.	.	8bL	.
.	.	.	.	8d	.	8aJ	.
=34	=34	=34	=34	=34	=34	=34	=34
8FL]	.	2c	spi-	4e	.	4g	.
8GJ	.	.	.	.	.	.	.
4A	.	.	.	4f	.	2cc	.
2G	-ri-	2d	-ri-	2g	.	.	.
.	.	.	.	.	.	4b	-ri-
=35	=35	=35	=35	=35	=35	=35	=35
4A	-tus,	1c	-tus,	4e	-tor,	[1cc	-tus,
2F	.	.	.	2a	spi-	.	.
8EL	.	.	.	8gL	.	.	.
8DJ	.	.	.	8fJ	.	.	.
=36	=36	=36	=36	=36	=36	=36	=36
2E	.	2r	.	8gL	.	1cc]	.
.	.	.	.	8f	.	.	.
.	.	.	.	8e	.	.	.
.	.	.	.	8dJ	.	.	.
2F	Men-	2d	Men-	4c	.	.	.
.	.	.	.	[4f	.	.	.
!!LO:LB:g=original
=37	=37	=37	=37	=37	=37	=37	=37
2G	-tes	2c	-tes	4f]	.	2r	.
.	.	.	.	4e	-ri-	.	.
4.F	tu-	2d	tu-	2f	-tus,	2cc	Men-
8E	.	.	.	.	.	.	.
=38	=38	=38	=38	=38	=38	=38	=38
2D	-o-	2e	-o-	1r	.	2b	-tes
2C	-rum	2f	-rum	.	.	2cc	tu-
=39	=39	=39	=39	=39	=39	=39	=39
4r	.	4d	vi-	2.f	tu-	2dd	-o-
4.F	vi-	2f	.	.	.	.	.
.	.	.	.	.	.	4cc	-rum
8GL	.	.	.	.	.	.	.
8A	.	8eL	.	4g	.	[4ee	vi-
8BJ	.	8dJ	.	.	.	.	.
=40	=40	=40	=40	=40	=40	=40	=40
4c	.	4c	.	8eL	-o-	8eeL]	.
.	.	.	.	8fJ	.	8ddJ	.
4B	.	4d	.	4g	-rum	2dd	-si-
2A	-si-	2e	-si-	4.a	vi-	.	.
.	.	.	.	.	.	4cc#i	.
.	.	.	.	8g	.	.	.
=41	=41	=41	=41	=41	=41	=41	=41
2D	-ta,	1d	-ta,	8aL	-si-	1dd	-ta,
.	.	.	.	8g	.	.	.
.	.	.	.	8f	.	.	.
.	.	.	.	8eJ	.	.	.
2r	.	.	.	2f	-ta,	.	.
=42	=42	=42	=42	=42	=42	=42	=42
2F	Im-	1r	.	4f	Im-	2cc	Im-
.	.	.	.	8eL	.	.	.
.	.	.	.	8dJ	.	.	.
2G	.	.	.	2e	.	2b	.
=43	=43	=43	=43	=43	=43	=43	=43
4A	.	2r	.	4f	.	1a	-ple
2F	.	.	.	2d	.	.	.
.	.	2F	Im-	.	.	.	.
8EL	.	.	.	8cL	.	.	.
8DJ	.	.	.	8BJ	.	.	.
=44	=44	=44	=44	=44	=44	=44	=44
2E	.	2G	-ple-	2c	.	1r	.
2D	-ple-	4A	-su-	2d	-ple-	.	.
.	.	[4F	-per-	.	.	.	.
!!LO:LB:g=original
=45	=45	=45	=45	=45	=45	=45	=45
2C	-su-	4F]	.	2e	-su-	2r	.
.	.	4E	.	.	.	.	.
4.D	-per-	2F	-na	2d	-per-	4.f	su-
8E	.	.	.	.	.	8g	.
=46	=46	=46	=46	=46	=46	=46	=46
2F	.	4r	.	4c	-na	2a	-per-
.	.	2c	gra-	2f	gra-	.	.
2G	-na	.	.	.	.	2b	.
.	.	4B	.	4e	-ti-	.	.
=47	=47	=47	=47	=47	=47	=47	=47
2.F	gra-	2c	.	1f	-a,	4a	-na
.	.	.	.	.	.	2cc	gra-
.	.	2d	-ti-	.	.	.	.
4G	-ti-	.	.	.	.	4b	-ti-
=48	=48	=48	=48	=48	=48	=48	=48
1A	-a,	2c	-a,	2e	Quae	1cc	-a,
.	.	2r	.	2c	tu	.	.
=49	=49	=49	=49	=49	=49	=49	=49
2r	.	2B	Quae	2d	cre-	1r	.
2E	Quae	2c	.	2e	-as-	.	.
=50	=50	=50	=50	=50	=50	=50	=50
2F	tu	2A	tu	4c	.	1r	.
.	.	.	.	4.d	.	.	.
4E	cre-	2G	cre-	.	.	.	.
.	.	.	.	8c	.	.	.
4C	.	.	.	[4c	.	.	.
=51	=51	=51	=51	=51	=51	=51	=51
2D	-as-	2F	-as-	4c]	.	1r	.
.	.	.	.	4B	.	.	.
2C	-ti	2G	-ti	[2c	-ti,	.	.
=52	=52	=52	=52	=52	=52	=52	=52
*	*edit	*	*edit	*	*	*	*
2F	pec-	2A	pec-	2c]	.	2cc	Quae
2G	-to-	2B	-to-	2r	.	2b	tu
!!LO:LB:g=original
=53	=53	=53	=53	=53	=53	=53	=53
1F	-ra,	2A	-ra,	2r	.	2cc	cre-
.	.	2r	.	4r	.	2a	-as-
*	*	*	*	*	*edit	*	*
.	.	.	.	4d	quae	.	.
=54	=54	=54	=54	=54	=54	=54	=54
*	*	*	*Xedit	*	*	*	*
4.E	cre-	2c	quae	4e	tu	1g	-ti,
.	.	.	.	4c	.	.	.
8F	.	.	.	.	.	.	.
2G	-as-	2B	tu	4d	cre-	.	.
.	.	.	.	4e	.	.	.
=55	=55	=55	=55	=55	=55	=55	=55
*	*	*	*	*	*	*	*edit
1F	-ti	2c	cre-	2f	-as-	2a	quae
.	.	2A	-as-	4c	.	2f	tu
.	.	.	.	[4f	.	.	.
=56	=56	=56	=56	=56	=56	=56	=56
2r	.	1G	-ti	4f]	.	2g	cre-
.	.	.	.	8eL	.	.	.
.	.	.	.	8dJ	.	.	.
*	*Xedit	*	*	*	*	*	*
2G	pec-	.	.	2e	-ti	2b	-as-
=57	=57	=57	=57	=57	=57	=57	=57
*	*	*	*	*	*Xedit	*	*
2.A	-to-	1F	pec-	2f	pec-	4a	-ti
*	*	*	*	*	*	*	*Xedit
.	.	.	.	.	.	2cc	pec-
.	.	.	.	4.c	.	.	.
8GL	.	.	.	.	.	8bL	.
8FJ	.	.	.	8d	.	8aJ	.
=58	=58	=58	=58	=58	=58	=58	=58
4.E	.	2G	.	4.e	.	4b	.
.	.	.	.	.	.	2g	.
8F	.	.	.	8d	.	.	.
2G	.	2B	.	4.B	.	.	.
.	.	.	.	.	.	8f#jL	.
.	.	.	.	8c	.	8eJ	.
=59	=59	=59	=59	=59	=59	=59	=59
*lig	*	*	*	*	*	*	*
1D	-ra.	1A	-to-	1d	-to-	4f#i	.
.	.	.	.	.	.	2g	.
.	.	.	.	.	.	4f#i	-to-
=60	=60	=60	=60	=60	=60	=60	=60
1GGl	.	1Gl	-ra.	1dl	-ra.	1gl	-ra.
*Xlig	*	*	*	*	*	*	*
==	==	==	==	==	==	==	==
*-	*-	*-	*-	*-	*-	*-	*-
!!!system-decoration: [*]
!!!RDF**kern: j = editorial accidental, optional, paren up
!!!RDF**kern: i = editorial accidental
!!!RDF**kern: i = editorial accidental
!!!RDF**kern: l = terminal breve
!!!PTL: Gaspar van Weerbeke: Collected Works. III. The Motet Cycles
!!!PPR: American Institute of Musicology
!!!PC#: Corpus Mensurabilis Musicae 106/III
!!!PDT: 1998
!!!PED: Lindmayr-Brandl, Andrea
!!!YEC: Copyright 1998, Lindmayr-Brandl, Andrea
!!!YEM: CC-BY-NC 4.0 (https://creativecommons.org/licenses/by-nc/4.0/legalcode)
!!!EED: Mair-Gruber, Roland
!!!EEV: 2021/11/27
